X:70
T:Blackthorn Stick
T:Coach Road To Sligo
C:Traditional
R:jig
M:6/8
K:G
| gfg ege | dBG AGE | DGG FGA | BGB A2d|
gfg age | dBG AGE | DGG FGA | BGF G2d :|
|: edd gdd | edd gdd | edd gfe | dBG A2d |
gfg age | dBG AGE | DGG FGA | BGF G2d :|


%%newpage
%%textfont Times-Roman 36
%%begintext center
TUNES NOT IN SETS
%%endtext

